docs/assets/layer2desktop.svg

<svg width="1921" height="1430" viewBox="0 0 1921 1430" fill="none" xmlns="http://www.w3.org/2000/svg">
<path d="M0.847656 276.964L1920.85 76.9639V1229.96L0.847656 1429.96V276.964Z" fill="white"/>
<g clip-path="url(#clip0_61_8147)">
<path fill-rule="evenodd" clip-rule="evenodd" d="M1738.45 38.8193C1738.45 38.8193 1749.15 91.5557 1747.93 104.158C1746.72 116.761 1722.54 144.595 1722.54 144.595C1722.54 144.595 1697.02 199.354 1688.78 226.143C1680.55 252.932 1619.98 323.865 1619.98 323.865H1491.15C1446.05 323.865 1376.81 300.277 1376.81 300.277C1376.81 300.277 1311.51 181.191 1305.91 175.597C1300.3 170.003 1268.77 158.748 1268.77 158.748C1268.77 158.748 1217.05 65.9457 1213 41.414L1356.48 47.3448L1738.45 38.8193Z" fill="url(#paint0_linear_61_8147)"/>
<path fill-rule="evenodd" clip-rule="evenodd" d="M1738.45 38.8194L1670.62 30.3277L1631.22 23.5882C1631.22 23.5882 1459.96 23.8578 1406.28 26.9579C1406.28 26.9579 1350.3 0.404418 1338.12 4.95064e-05C1325.93 -0.404319 1298.45 30.3277 1298.45 30.3277L1213 41.4141C1213 41.4141 1252.03 54.893 1282.11 54.4213L1253.51 64.025C1258.93 68.1323 1265.07 71.2053 1271.61 73.0896C1282.99 76.4593 1368.47 79.054 1409.05 78.5823C1449.63 78.1105 1467.35 64.025 1467.35 64.025L1448.75 56.9823L1470.69 54.3876C1470.69 54.3876 1537.1 66.0131 1562.42 66.8219C1581.83 66.7885 1601.2 64.9952 1620.28 61.464L1578.12 47.9851C1578.12 47.9851 1600.64 48.2546 1638.89 51.6918C1673.29 54.8593 1714.54 44.0088 1738.45 38.8194Z" fill="#CECCD4"/>
<g style="mix-blend-mode:multiply" opacity="0.35">
<path fill-rule="evenodd" clip-rule="evenodd" d="M1638.79 51.7253V88.5228L1676.23 94.8916C1676.23 94.8916 1677.88 95.5993 1682 106.18C1686.12 116.761 1705.19 142.809 1705.19 142.809L1722.54 144.73L1708.64 175.765C1708.64 175.765 1688.62 175.967 1680.65 180.887C1672.68 185.807 1655.02 200.567 1655.02 200.567L1644.42 229.546C1644.42 229.546 1633.86 175.967 1633.15 167.509C1632.44 159.051 1622.14 122.658 1623.76 116.525C1625.38 110.392 1623.12 86.3999 1623.12 86.3999L1620.28 61.4639C1620.28 61.4639 1566.03 68.7762 1560.39 70.7643C1554.76 72.7525 1552.26 95.4308 1552.26 95.4308L1533.72 138.159L1554.42 200.263L1546.45 252.932L1543.85 292.527L1514.48 324H1491.15C1491.15 324 1472.08 221.088 1470.69 214.719C1469.31 208.351 1475.72 193.591 1475.72 193.591L1466.44 128.892L1467.35 64.0249L1448.75 56.9821L1470.69 54.3874C1470.69 54.3874 1539.6 64.6651 1551.01 65.7434C1562.42 66.8217 1620.59 60.3519 1620.59 60.3519L1585.65 47.6143L1638.79 51.7253Z" fill="#A7A7A8"/>
</g>
<g style="mix-blend-mode:multiply" opacity="0.35">
<path fill-rule="evenodd" clip-rule="evenodd" d="M1341.29 78.6833L1294.8 86.4L1302.19 104.159L1322.45 152.683L1346.76 175.765L1374 185.875L1395.2 200.634H1376.74L1378.16 220.28L1388.01 267.051L1388.55 304.119L1376.81 300.344C1376.81 300.344 1326.16 208.721 1305.91 175.664C1305.91 175.664 1272.15 165.218 1268.77 158.816C1265.4 152.413 1217.36 63.4184 1213 41.4141L1282.11 54.4212L1253.51 64.025C1253.51 64.025 1273.77 72.9885 1287.27 75.1114C1300.78 77.2343 1341.29 78.6833 1341.29 78.6833Z" fill="#A7A7A8"/>
</g>
<g style="mix-blend-mode:color-dodge" opacity="0.46">
<path fill-rule="evenodd" clip-rule="evenodd" d="M1403.71 26.5197L1420.59 35.5506C1420.59 35.5506 1408.2 38.5834 1400.98 40.74C1393.75 42.8966 1354.22 39.4595 1347.16 37.3703C1340.11 35.281 1314.28 26.5197 1314.28 26.5197L1312.9 17.7247C1312.9 17.7247 1332.24 -0.977328 1338.12 -0.00010461C1343.99 0.977118 1393.45 21.0607 1403.71 26.5197Z" fill="#ABA7B5"/>
</g>
<g style="mix-blend-mode:multiply" opacity="0.33">
<path fill-rule="evenodd" clip-rule="evenodd" d="M1296.35 30.6644L1312.83 40.7736L1338.66 41.4475H1393.65C1393.65 41.4475 1351.42 37.505 1345 36.0223C1338.59 34.5396 1314.28 26.5196 1314.28 26.5196L1312.9 17.7246L1296.35 30.6644Z" fill="#474757"/>
</g>
<g style="mix-blend-mode:multiply" opacity="0.34">
<path fill-rule="evenodd" clip-rule="evenodd" d="M1638.79 88.5228L1623.12 125.186L1620.59 60.3855L1576.83 47.6479L1638.79 51.7253V88.5228Z" fill="#474757"/>
</g>
<g style="mix-blend-mode:multiply" opacity="0.34">
<path fill-rule="evenodd" clip-rule="evenodd" d="M1282.11 54.4212L1253.51 64.025L1265.8 153.66C1265.8 153.66 1227.25 80.3345 1213 41.4141L1282.11 54.4212Z" fill="#474757"/>
</g>
<g style="mix-blend-mode:multiply" opacity="0.34">
<path fill-rule="evenodd" clip-rule="evenodd" d="M1551.01 65.7769L1514.48 101.159L1491.86 125.185L1487.27 145.741L1467.01 132.868L1467.35 64.0583L1448.75 57.0156L1470.69 54.4209L1551.01 65.7769Z" fill="#474757"/>
</g>
<g style="mix-blend-mode:multiply" opacity="0.2">
<path d="M1359.92 166.768C1360.37 165.706 1360.88 164.67 1361.44 163.668C1361.68 163.196 1361.85 162.691 1362.12 162.252C1362.45 161.659 1362.86 161.115 1363.33 160.635C1364.27 159.622 1365.42 158.837 1366.71 158.344C1368.13 157.885 1369.64 157.792 1371.1 158.074C1371.53 158.197 1371.93 158.403 1372.27 158.681C1372.62 158.958 1372.91 159.302 1373.13 159.691V159.691C1373.32 159.894 1373.49 160.121 1373.63 160.365C1373.63 160.669 1373.87 160.938 1373.97 161.208C1374.14 161.826 1374.14 162.477 1373.97 163.095C1373.66 165.462 1372.91 167.749 1371.74 169.834C1371.05 171.091 1370.08 172.174 1368.91 173.002C1367.76 173.854 1366.35 174.283 1364.92 174.215C1364.01 174.144 1363.12 173.879 1362.32 173.44C1361.54 172.951 1360.89 172.295 1360.4 171.519C1359.97 170.814 1359.7 170.02 1359.62 169.198C1359.54 168.375 1359.64 167.544 1359.92 166.768V166.768Z" fill="#A7A7A8"/>
</g>
<g style="mix-blend-mode:multiply" opacity="0.2">
<path d="M1384.13 155.345C1381.95 152.088 1380.51 148.396 1379.91 144.528C1379.41 141.94 1379.66 139.265 1380.62 136.811C1381.54 134.82 1382.67 132.933 1384 131.184C1386.43 127.615 1389.77 124.764 1393.69 122.928C1394.66 122.489 1395.68 122.14 1396.72 121.883C1399.07 120.767 1401.66 120.279 1404.25 120.468C1407.26 120.857 1410.06 122.206 1412.24 124.313C1414.42 126.42 1415.85 129.172 1416.34 132.161C1416.96 136.139 1416.22 140.21 1414.25 143.719C1412.61 147.006 1410.8 150.201 1408.81 153.289C1406.18 157.097 1402.9 161.141 1398.04 161.713C1395.36 162.023 1392.65 161.593 1390.19 160.47C1387.74 159.347 1385.64 157.574 1384.13 155.345V155.345Z" fill="#A7A7A8"/>
</g>
<g style="mix-blend-mode:multiply" opacity="0.2">
<path d="M1377.01 206.126C1376.4 204.651 1375.92 203.13 1375.56 201.577C1375.32 200.87 1375.02 200.229 1374.85 199.522C1374.64 198.558 1374.54 197.575 1374.54 196.59C1374.59 194.272 1375.09 191.985 1375.99 189.851C1377.01 187.457 1378.45 185.266 1380.25 183.381C1381.25 182.401 1382.56 181.794 1383.96 181.662H1384.23C1384.61 181.516 1385.01 181.447 1385.41 181.46H1386.6C1387.36 181.696 1388.02 182.198 1388.45 182.875C1390.49 185.229 1391.92 188.038 1392.64 191.064C1393.1 193.207 1393.1 195.424 1392.64 197.567C1392.16 200.043 1391.07 202.361 1389.47 204.307C1388.53 205.525 1387.38 206.573 1386.09 207.407C1384.9 208.123 1383.58 208.582 1382.21 208.755C1381.17 208.9 1380.12 208.725 1379.19 208.255C1378.26 207.785 1377.5 207.042 1377.01 206.126Z" fill="#A7A7A8"/>
</g>
<g style="mix-blend-mode:multiply" opacity="0.2">
<path d="M1645.98 198.309C1647.56 200.465 1657.22 196.59 1658.84 194.4C1668.97 180.55 1670.22 162.32 1663.87 165.824C1657.52 169.329 1634.63 182.606 1645.98 198.309Z" fill="#A7A7A8"/>
</g>
<g style="mix-blend-mode:multiply" opacity="0.2">
<path d="M1628.25 169.161C1628.79 168.916 1629.38 168.791 1629.98 168.795C1630.58 168.799 1631.16 168.933 1631.7 169.186C1632.24 169.439 1632.72 169.806 1633.1 170.261C1633.49 170.716 1633.77 171.249 1633.92 171.823C1634.83 174.356 1634.91 177.113 1634.15 179.694C1633.38 182.276 1631.81 184.546 1629.67 186.178C1623.32 191.199 1613.5 185.201 1613.57 179.438C1613.63 175.765 1622.68 171.452 1628.25 169.161Z" fill="#A7A7A8"/>
</g>
<g style="mix-blend-mode:multiply" opacity="0.2">
<path d="M1466.2 233.792C1465.63 241.205 1464.14 269.781 1464.75 274.465C1465.36 279.149 1495.47 285.147 1496.59 279.048C1497.7 272.948 1475.08 230.321 1470.73 227.693C1466.37 225.064 1466.2 231.602 1466.2 233.792Z" fill="#A7A7A8"/>
</g>
</g>
<defs>
<linearGradient id="paint0_linear_61_8147" x1="1472.99" y1="383.779" x2="1483.11" y2="-38.0452" gradientUnits="userSpaceOnUse">
<stop offset="0.12" stop-color="#CFCCD4"/>
<stop offset="1" stop-color="#2C2733"/>
</linearGradient>
<clipPath id="clip0_61_8147">
<rect width="535" height="324" fill="white" transform="translate(1213)"/>
</clipPath>
</defs>
</svg>

<svg xmlns="http://www.w3.org/2000/svg" width="1921" height="1430" fill="none" xmlns:v="https://vecta.io/nano"><style><![CDATA[.B{fill-rule:evenodd}.C{fill:#a7a7a8}.D{opacity:.2}.E{fill:#474757}]]></style><path d="M.848 276.964l1920.002-200V1229.96L.848 1429.96V276.964z" fill="#fff"/><g clip-path="url(#B)"><g class="B"><path d="M1738.45 38.819s10.7 52.736 9.48 65.339c-1.21 12.603-25.39 40.437-25.39 40.437s-25.52 54.759-33.76 81.548c-8.23 26.789-68.8 97.722-68.8 97.722h-128.83c-45.1 0-114.34-23.588-114.34-23.588s-65.3-119.086-70.9-124.68c-5.61-5.594-37.14-16.849-37.14-16.849S1217.05 65.946 1213 41.414l143.48 5.931 381.97-8.526z" fill="url(#A)"/><path d="M1738.45 38.819l-67.83-8.492-39.4-6.739-224.94 3.37S1350.3.404 1338.12 0c-12.19-.404-39.67 30.328-39.67 30.328L1213 41.414s39.03 13.479 69.11 13.007l-28.6 9.604a55.34 55.34 0 0 0 18.1 9.065c11.38 3.37 96.86 5.964 137.44 5.493s58.3-14.557 58.3-14.557l-18.6-7.043 21.94-2.595s66.41 11.625 91.73 12.434a321.01 321.01 0 0 0 57.86-5.358l-42.16-13.479s22.52.27 60.77 3.707c34.4 3.167 75.65-7.683 99.56-12.872z" fill="#ceccd4"/></g><g style="mix-blend-mode:multiply" opacity=".35" class="B C"><path d="M1638.79 51.725v36.798l37.44 6.369s1.65.708 5.77 11.288 23.19 36.629 23.19 36.629l17.35 1.921-13.9 31.035s-20.02.202-27.99 5.122-25.63 19.68-25.63 19.68l-10.6 28.979-11.27-62.037c-.71-8.458-11.01-44.851-9.39-50.984s-.64-30.125-.64-30.125l-2.84-24.936s-54.25 7.312-59.89 9.3c-5.63 1.988-8.13 24.667-8.13 24.667l-18.54 42.728 20.7 62.104-7.97 52.669-2.6 39.595L1514.48 324h-23.33l-20.46-109.281c-1.38-6.368 5.03-21.128 5.03-21.128l-9.28-64.699.91-64.867-18.6-7.043 21.94-2.595 80.32 11.356c11.41 1.078 69.58-5.391 69.58-5.391l-34.94-12.738 53.14 4.111z"/></g><g style="mix-blend-mode:multiply" opacity=".35" class="B C"><path d="M1341.29 78.683L1294.8 86.4l7.39 17.759 20.26 48.524 24.31 23.082 27.24 10.11 21.2 14.759h-18.46l1.42 19.646 9.85 46.771.54 37.068-11.74-3.775-70.9-124.68s-33.76-10.446-37.14-16.848c-3.37-6.403-51.41-95.398-55.77-117.402l69.11 13.007-28.6 9.604s20.26 8.963 33.76 11.086c13.51 2.123 54.02 3.572 54.02 3.572z"/></g><g style="mix-blend-mode:color-dodge" opacity=".46" class="B"><path d="M1403.71 26.52l16.88 9.031s-12.39 3.033-19.61 5.189c-7.23 2.157-46.76-1.281-53.82-3.37-7.05-2.089-32.88-10.851-32.88-10.851l-1.38-8.795S1332.24-.977 1338.12 0c5.87.977 55.33 21.061 65.59 26.52z" fill="#aba7b5"/></g><g style="mix-blend-mode:multiply" opacity=".33" class="B E"><path d="M1296.35 30.664l16.48 10.109 25.83.674h54.99s-42.23-3.942-48.65-5.425c-6.41-1.483-30.72-9.503-30.72-9.503l-1.38-8.795-16.55 12.94z"/></g><g style="mix-blend-mode:multiply" opacity=".34" class="B E"><path d="M1638.79 88.523l-15.67 36.663-2.53-64.8-43.76-12.738 61.96 4.077v36.798z"/></g><g style="mix-blend-mode:multiply" opacity=".34" class="B E"><path d="M1282.11 54.421l-28.6 9.604 12.29 89.635s-38.55-73.325-52.8-112.246l69.11 13.007z"/></g><g style="mix-blend-mode:multiply" opacity=".34" class="B E"><path d="M1551.01 65.777l-36.53 35.382-22.62 24.026-4.59 20.556-20.26-12.873.34-68.81-18.6-7.043 21.94-2.595 80.32 11.356z"/></g><g style="mix-blend-mode:multiply" class="D C"><path d="M1359.92 166.768c.45-1.062.96-2.098 1.52-3.1.24-.472.41-.977.68-1.416.33-.593.74-1.137 1.21-1.617.94-1.013 2.09-1.798 3.38-2.291a8.83 8.83 0 0 1 4.39-.27 3.27 3.27 0 0 1 1.17.607 3.45 3.45 0 0 1 .86 1.01h0c.19.203.36.43.5.674 0 .304.24.573.34.843.17.618.17 1.269 0 1.887-.31 2.367-1.06 4.654-2.23 6.739-.69 1.257-1.66 2.34-2.83 3.168a6.21 6.21 0 0 1-3.99 1.213 6.46 6.46 0 0 1-2.6-.775c-.78-.489-1.43-1.145-1.92-1.921-.43-.705-.7-1.499-.78-2.321s.02-1.654.3-2.43h0z"/></g><g style="mix-blend-mode:multiply" class="D C"><path d="M1384.13 155.345c-2.18-3.257-3.62-6.949-4.22-10.817a13.93 13.93 0 0 1 .71-7.717c.92-1.991 2.05-3.878 3.38-5.627 2.43-3.569 5.77-6.42 9.69-8.256a17.61 17.61 0 0 1 3.03-1.045c2.35-1.116 4.94-1.604 7.53-1.415 3.01.389 5.81 1.738 7.99 3.845s3.61 4.859 4.1 7.848c.62 3.978-.12 8.049-2.09 11.558a100.4 100.4 0 0 1-5.44 9.57c-2.63 3.808-5.91 7.852-10.77 8.424-2.68.31-5.39-.12-7.85-1.243-2.45-1.123-4.55-2.896-6.06-5.125h0z"/></g><g style="mix-blend-mode:multiply" class="D C"><path d="M1377.01 206.126c-.61-1.475-1.09-2.996-1.45-4.549l-.71-2.055a13.77 13.77 0 0 1-.31-2.932c.05-2.318.55-4.605 1.45-6.739a21.65 21.65 0 0 1 4.26-6.47 6.12 6.12 0 0 1 3.71-1.719h.27c.38-.146.78-.215 1.18-.202h1.19c.76.236 1.42.738 1.85 1.415a19.32 19.32 0 0 1 4.19 8.189c.46 2.143.46 4.36 0 6.503-.48 2.476-1.57 4.794-3.17 6.74-.94 1.218-2.09 2.266-3.38 3.1a9.94 9.94 0 0 1-3.88 1.348c-1.04.145-2.09-.03-3.02-.5a5.06 5.06 0 0 1-2.18-2.129z"/></g><g style="mix-blend-mode:multiply" class="D C"><path d="M1645.98 198.309c1.58 2.156 11.24-1.719 12.86-3.909 10.13-13.85 11.38-32.08 5.03-28.576s-29.24 16.782-17.89 32.485z"/></g><g style="mix-blend-mode:multiply" class="D C"><path d="M1628.25 169.161a4.12 4.12 0 0 1 1.73-.366c.6.004 1.18.138 1.72.391a4.08 4.08 0 0 1 1.4 1.075c.39.455.67.988.82 1.562.91 2.533.99 5.29.23 7.871a12.73 12.73 0 0 1-4.48 6.484c-6.35 5.021-16.17-.977-16.1-6.74.06-3.673 9.11-7.986 14.68-10.277z"/></g><g style="mix-blend-mode:multiply" class="D C"><path d="M1466.2 233.792c-.57 7.413-2.06 35.989-1.45 40.673s30.72 10.682 31.84 4.583c1.11-6.1-21.51-48.727-25.86-51.355-4.36-2.629-4.53 3.909-4.53 6.099z"/></g></g><defs><linearGradient id="A" x1="1472.99" y1="383.779" x2="1483.11" y2="-38.045" gradientUnits="userSpaceOnUse"><stop offset=".12" stop-color="#cfccd4"/><stop offset="1" stop-color="#2c2733"/></linearGradient><clipPath id="B"><path fill="#fff" transform="translate(1213)" d="M0 0h535v324H0z"/></clipPath></defs></svg>
